client/public/img/game/shared/residues/briefcase_residue.svg

<?xml version="1.0" encoding="UTF-8" standalone="no"?>
<!-- Created with Inkscape (http://www.inkscape.org/) -->

<svg
   width="39.788502mm"
   height="33.352013mm"
   viewBox="0 0 39.788502 33.352013"
   version="1.1"
   id="svg1"
   xml:space="preserve"
   xmlns:xlink="http://www.w3.org/1999/xlink"
   xmlns="http://www.w3.org/2000/svg"
   xmlns:svg="http://www.w3.org/2000/svg"><defs
     id="defs1"><filter
       style="color-interpolation-filters:sRGB"
       id="filter16-5"
       x="-0.063581862"
       y="-0.067495532"
       width="1.1271636"
       height="1.134991"><feFlood
         result="flood"
         in="SourceGraphic"
         flood-opacity="0.498039"
         flood-color="rgb(0,0,0)"
         id="feFlood15-4" /><feGaussianBlur
         result="blur"
         in="SourceGraphic"
         stdDeviation="0.600000"
         id="feGaussianBlur15-2" /><feOffset
         result="offset"
         in="blur"
         dx="0.000000"
         dy="0.000000"
         id="feOffset15-3" /><feComposite
         result="comp1"
         operator="in"
         in="flood"
         in2="offset"
         id="feComposite15-4" /><feComposite
         result="comp2"
         operator="over"
         in="SourceGraphic"
         in2="comp1"
         id="feComposite16-6" /></filter></defs><g
     id="layer1"
     transform="translate(-103.48163,-156.4385)"><g
       id="layer1-395-4"
       transform="matrix(0.39658936,0,0,0.39658936,25.200308,95.662364)"><rect
         style="fill:#adadad;fill-opacity:1;stroke:#868686;stroke-width:1.8439;stroke-linecap:round;stroke-linejoin:round;stroke-dasharray:none;stroke-opacity:1"
         id="rect4-1-4-0"
         width="11.97767"
         height="8.355463"
         x="-296.20584"
         y="-54.035801"
         transform="matrix(-0.58778525,-0.80901699,-0.80901699,0.58778525,0,0)" /><path
         style="fill:none;fill-opacity:1;stroke:#5d5d5d;stroke-width:6.81974;stroke-linecap:round;stroke-linejoin:round;stroke-dasharray:none;stroke-opacity:1"
         d="m 227.81632,208.55304 -4.68317,14.41338 33.75585,10.96791 5.26854,-16.21501"
         id="path3-9" /><rect
         style="fill:#cfcfcf;fill-opacity:1;stroke:#999999;stroke-width:5.777;stroke-linecap:round;stroke-linejoin:round;stroke-dasharray:none;stroke-opacity:1"
         id="rect1-6-6"
         width="56.169743"
         height="15.625256"
         x="-102.51145"
         y="-337.24854"
         ry="13.815543"
         rx="13.815543"
         transform="matrix(0.35836795,-0.93358043,-0.93358043,-0.35836795,0,0)" /><path
         style="fill:#cfcfcf;fill-opacity:1;stroke:#999999;stroke-width:5.777;stroke-linecap:round;stroke-linejoin:round;stroke-dasharray:none;stroke-opacity:1"
         d="M 287.96452,200.28225 244.20791,186.78176"
         id="path1-7-6-2-3" /><path
         style="fill:#cfcfcf;fill-opacity:1;stroke:#999999;stroke-width:5.777;stroke-linecap:round;stroke-linejoin:round;stroke-dasharray:none;stroke-opacity:1"
         d="M 244.03145,169.63601 200.27484,156.13552"
         id="path1-7-6-2-3-2" /><path
         style="fill:#4a4a4a;fill-opacity:1;stroke:none;stroke-width:5.77699;stroke-linecap:round;stroke-linejoin:round;stroke-dasharray:none;stroke-opacity:1"
         id="path4-7-7-4"
         d="m 39.180219,69.887135 7.47653,0 3.738264,6.474865 -3.738264,6.474864 -7.47653,0 -3.738265,-6.474865 z"
         transform="matrix(0.49999977,0,0,-0.49999977,253.24158,203.38925)" /><path
         style="fill:#4a4a4a;fill-opacity:1;stroke:none;stroke-width:5.77699;stroke-linecap:round;stroke-linejoin:round;stroke-dasharray:none;stroke-opacity:1"
         id="path4-7-7-4-3"
         d="m 39.180219,69.887135 7.47653,0 3.738264,6.474865 -3.738264,6.474864 -7.47653,0 -3.738265,-6.474865 z"
         transform="matrix(0.49999977,0,0,-0.49999977,211.36177,210.60991)" /><path
         style="fill:#4a4a4a;fill-opacity:1;stroke:none;stroke-width:5.77699;stroke-linecap:round;stroke-linejoin:round;stroke-dasharray:none;stroke-opacity:1"
         id="path4-7-7-4-0"
         d="m 39.180219,69.887135 7.47653,0 3.738264,6.474865 -3.738264,6.474864 -7.47653,0 -3.738265,-6.474865 z"
         transform="matrix(0.49999977,0,0,-0.49999977,233.50512,242.86219)" /></g><g
       id="layer1-1"
       transform="translate(110.36821,168.14097)"><path
         style="fill:#c7c7c7;fill-opacity:1;stroke:none;stroke-width:1.37726;stroke-linecap:round;stroke-linejoin:round;stroke-miterlimit:5;stroke-dasharray:none;stroke-opacity:1;paint-order:fill markers stroke"
         d="m 5.3134571,6.3175095 0.7847882,4.4690435 3.6824658,-0.852646 4.7389109,3.234176 4.557806,-1.264269 c 0,0 -2.173257,-3.498791 -2.203442,-3.645798 C 16.860212,8.190936 15.859781,7.560678 14.77597,6.8951559 13.484531,6.1021382 12.074706,5.2590518 12.074706,5.2590518 L 8.7544501,7.0819511 Z"
         id="path2" /><path
         style="fill:#a2a2a2;fill-opacity:1;stroke:none;stroke-width:1.45521;stroke-linecap:round;stroke-linejoin:round;stroke-miterlimit:5;stroke-dasharray:none;stroke-opacity:1;paint-order:fill markers stroke"
         d="m 18.253181,11.768445 -1.82509,-3.7169513 -0.500786,2.9156923 -2.325877,1.66929 z"
         id="path5" /><path
         style="fill:#a2a2a2;fill-opacity:1;stroke:none;stroke-width:1.45521;stroke-linecap:round;stroke-linejoin:round;stroke-miterlimit:5;stroke-dasharray:none;stroke-opacity:1;paint-order:fill markers stroke"
         d="M 5.3197877,6.6775423 5.6817665,8.928106 9.1363039,7.6533115 Z"
         id="path6" /><path
         style="fill:none;fill-opacity:1;stroke:#666666;stroke-width:1.37726;stroke-linecap:round;stroke-linejoin:round;stroke-miterlimit:5;stroke-dasharray:none;stroke-opacity:1;paint-order:fill markers stroke"
         d="m 5.3134571,6.3175095 0.7847882,4.4690435 3.6824658,-0.852646 4.7389109,3.234176 4.557806,-1.264269 c 0,0 -2.173257,-3.498791 -2.203442,-3.645798 C 16.860212,8.190936 15.859781,7.560678 14.77597,6.8951559 13.484531,6.1021382 12.074706,5.2590518 12.074706,5.2590518 L 8.7544501,7.0819511 Z"
         id="path3" /><path
         style="fill:none;fill-opacity:1;stroke:none;stroke-width:1.45521;stroke-linecap:round;stroke-linejoin:round;stroke-miterlimit:5;stroke-dasharray:none;stroke-opacity:1;paint-order:fill markers stroke"
         d="m 17.919324,10.216005 -3.116007,-0.801259 -3.383093,1.357689 2.937949,2.448291 4.184352,-1.201888 z"
         id="path4" /></g><g
       id="layer1-1-3"
       transform="rotate(135,34.548686,120.59285)"><path
         style="fill:#c7c7c7;fill-opacity:1;stroke:none;stroke-width:1.37726;stroke-linecap:round;stroke-linejoin:round;stroke-miterlimit:5;stroke-dasharray:none;stroke-opacity:1;paint-order:fill markers stroke"
         d="m 5.3134571,6.3175095 0.7847882,4.4690435 3.6824658,-0.852646 4.7389109,3.234176 4.557806,-1.264269 c 0,0 -2.173257,-3.498791 -2.203442,-3.645798 C 16.860212,8.190936 15.859781,7.560678 14.77597,6.8951559 13.484531,6.1021382 12.074706,5.2590518 12.074706,5.2590518 L 8.7544501,7.0819511 Z"
         id="path2-0" /><path
         style="fill:#a2a2a2;fill-opacity:1;stroke:none;stroke-width:1.45521;stroke-linecap:round;stroke-linejoin:round;stroke-miterlimit:5;stroke-dasharray:none;stroke-opacity:1;paint-order:fill markers stroke"
         d="m 18.253181,11.768445 -1.82509,-3.7169513 -0.500786,2.9156923 -2.325877,1.66929 z"
         id="path5-0" /><path
         style="fill:#a2a2a2;fill-opacity:1;stroke:none;stroke-width:1.45521;stroke-linecap:round;stroke-linejoin:round;stroke-miterlimit:5;stroke-dasharray:none;stroke-opacity:1;paint-order:fill markers stroke"
         d="M 5.3197877,6.6775423 5.6817665,8.928106 9.1363039,7.6533115 Z"
         id="path6-1" /><path
         style="fill:none;fill-opacity:1;stroke:#666666;stroke-width:1.37726;stroke-linecap:round;stroke-linejoin:round;stroke-miterlimit:5;stroke-dasharray:none;stroke-opacity:1;paint-order:fill markers stroke"
         d="m 5.3134571,6.3175095 0.7847882,4.4690435 3.6824658,-0.852646 4.7389109,3.234176 4.557806,-1.264269 c 0,0 -2.173257,-3.498791 -2.203442,-3.645798 C 16.860212,8.190936 15.859781,7.560678 14.77597,6.8951559 13.484531,6.1021382 12.074706,5.2590518 12.074706,5.2590518 L 8.7544501,7.0819511 Z"
         id="path3-0" /><path
         style="fill:none;fill-opacity:1;stroke:none;stroke-width:1.45521;stroke-linecap:round;stroke-linejoin:round;stroke-miterlimit:5;stroke-dasharray:none;stroke-opacity:1;paint-order:fill markers stroke"
         d="m 17.919324,10.216005 -3.116007,-0.801259 -3.383093,1.357689 2.937949,2.448291 4.184352,-1.201888 z"
         id="path4-7" /></g><use
       x="0"
       y="0"
       xlink:href="#rect1-6-6"
       id="use1"
       transform="matrix(0.10491923,0.25679709,-0.27332395,0.09857516,137.61439,83.852942)"
       style="stroke-width:1.39753" /></g></svg>

<svg xmlns="http://www.w3.org/2000/svg" xmlns:xlink="http://www.w3.org/1999/xlink" xml:space="preserve" width="150.382" height="126.055" viewBox="0 0 39.789 33.352"><g transform="translate(-103.482 -156.439)"><g transform="matrix(.39659 0 0 .39659 25.2 95.662)"><path d="M-296.206-54.036h11.978v8.355h-11.978z" style="fill:#adadad;fill-opacity:1;stroke:#868686;stroke-width:1.8439;stroke-linecap:round;stroke-linejoin:round;stroke-dasharray:none;stroke-opacity:1" transform="scale(-1 1)rotate(-54)"/><path d="m227.816 208.553-4.683 14.413 33.756 10.968 5.269-16.215" style="fill:none;fill-opacity:1;stroke:#5d5d5d;stroke-width:6.81974;stroke-linecap:round;stroke-linejoin:round;stroke-dasharray:none;stroke-opacity:1"/><rect id="a" width="56.17" height="15.625" x="-102.511" y="-337.249" rx="13.816" ry="13.816" style="fill:#cfcfcf;fill-opacity:1;stroke:#999;stroke-width:5.777;stroke-linecap:round;stroke-linejoin:round;stroke-dasharray:none;stroke-opacity:1" transform="scale(1 -1)rotate(69)"/><path d="m287.965 200.282-43.757-13.5M244.031 169.636l-43.756-13.5" style="fill:#cfcfcf;fill-opacity:1;stroke:#999;stroke-width:5.777;stroke-linecap:round;stroke-linejoin:round;stroke-dasharray:none;stroke-opacity:1"/><path d="M39.18 69.887h7.477l3.738 6.475-3.738 6.475H39.18l-3.738-6.475z" style="fill:#4a4a4a;fill-opacity:1;stroke:none;stroke-width:5.77699;stroke-linecap:round;stroke-linejoin:round;stroke-dasharray:none;stroke-opacity:1" transform="matrix(.5 0 0 -.5 253.242 203.39)"/><path d="M39.18 69.887h7.477l3.738 6.475-3.738 6.475H39.18l-3.738-6.475z" style="fill:#4a4a4a;fill-opacity:1;stroke:none;stroke-width:5.77699;stroke-linecap:round;stroke-linejoin:round;stroke-dasharray:none;stroke-opacity:1" transform="matrix(.5 0 0 -.5 211.362 210.61)"/><path d="M39.18 69.887h7.477l3.738 6.475-3.738 6.475H39.18l-3.738-6.475z" style="fill:#4a4a4a;fill-opacity:1;stroke:none;stroke-width:5.77699;stroke-linecap:round;stroke-linejoin:round;stroke-dasharray:none;stroke-opacity:1" transform="matrix(.5 0 0 -.5 233.505 242.862)"/></g><path d="m5.313 6.318.785 4.469 3.683-.853 4.739 3.234 4.557-1.264s-2.173-3.499-2.203-3.646c-.014-.067-1.014-.697-2.098-1.363-1.291-.793-2.701-1.636-2.701-1.636l-3.32 1.823Z" style="fill:#c7c7c7;fill-opacity:1;stroke:none;stroke-width:1.37726;stroke-linecap:round;stroke-linejoin:round;stroke-miterlimit:5;stroke-dasharray:none;stroke-opacity:1;paint-order:fill markers stroke" transform="translate(110.368 168.141)"/><path d="m18.253 11.768-1.825-3.717-.5 2.916-2.327 1.67zM5.32 6.678l.362 2.25 3.454-1.275Z" style="fill:#a2a2a2;fill-opacity:1;stroke:none;stroke-width:1.45521;stroke-linecap:round;stroke-linejoin:round;stroke-miterlimit:5;stroke-dasharray:none;stroke-opacity:1;paint-order:fill markers stroke" transform="translate(110.368 168.141)"/><path d="m5.313 6.318.785 4.469 3.683-.853 4.739 3.234 4.557-1.264s-2.173-3.499-2.203-3.646c-.014-.067-1.014-.697-2.098-1.363-1.291-.793-2.701-1.636-2.701-1.636l-3.32 1.823Z" style="fill:none;fill-opacity:1;stroke:#666;stroke-width:1.37726;stroke-linecap:round;stroke-linejoin:round;stroke-miterlimit:5;stroke-dasharray:none;stroke-opacity:1;paint-order:fill markers stroke" transform="translate(110.368 168.141)"/><path d="m17.92 10.216-3.117-.801-3.383 1.357 2.938 2.449 4.185-1.202z" style="fill:none;fill-opacity:1;stroke:none;stroke-width:1.45521;stroke-linecap:round;stroke-linejoin:round;stroke-miterlimit:5;stroke-dasharray:none;stroke-opacity:1;paint-order:fill markers stroke" transform="translate(110.368 168.141)"/><path d="m5.313 6.318.785 4.469 3.683-.853 4.739 3.234 4.557-1.264s-2.173-3.499-2.203-3.646c-.014-.067-1.014-.697-2.098-1.363-1.291-.793-2.701-1.636-2.701-1.636l-3.32 1.823Z" style="fill:#c7c7c7;fill-opacity:1;stroke:none;stroke-width:1.37726;stroke-linecap:round;stroke-linejoin:round;stroke-miterlimit:5;stroke-dasharray:none;stroke-opacity:1;paint-order:fill markers stroke" transform="rotate(135 34.549 120.593)"/><path d="m18.253 11.768-1.825-3.717-.5 2.916-2.327 1.67zM5.32 6.678l.362 2.25 3.454-1.275Z" style="fill:#a2a2a2;fill-opacity:1;stroke:none;stroke-width:1.45521;stroke-linecap:round;stroke-linejoin:round;stroke-miterlimit:5;stroke-dasharray:none;stroke-opacity:1;paint-order:fill markers stroke" transform="rotate(135 34.549 120.593)"/><path d="m5.313 6.318.785 4.469 3.683-.853 4.739 3.234 4.557-1.264s-2.173-3.499-2.203-3.646c-.014-.067-1.014-.697-2.098-1.363-1.291-.793-2.701-1.636-2.701-1.636l-3.32 1.823Z" style="fill:none;fill-opacity:1;stroke:#666;stroke-width:1.37726;stroke-linecap:round;stroke-linejoin:round;stroke-miterlimit:5;stroke-dasharray:none;stroke-opacity:1;paint-order:fill markers stroke" transform="rotate(135 34.549 120.593)"/><path d="m17.92 10.216-3.117-.801-3.383 1.357 2.938 2.449 4.185-1.202z" style="fill:none;fill-opacity:1;stroke:none;stroke-width:1.45521;stroke-linecap:round;stroke-linejoin:round;stroke-miterlimit:5;stroke-dasharray:none;stroke-opacity:1;paint-order:fill markers stroke" transform="rotate(135 34.549 120.593)"/><use xlink:href="#a" style="stroke-width:1.39753" transform="matrix(.10492 .2568 -.27332 .09858 137.614 83.853)"/></g></svg>
